fs/edit_28_regular.svg

<svg viewBox="0 0 28 28" fill="none" xmlns="http://www.w3.org/2000/svg" height="1em" width="1em">
  <path d="M24.8497 3.14974C23.3141 1.61414 20.8244 1.61415 19.2889 3.14976L4.5025 17.9367C4.06211 18.3771 3.74255 18.9235 3.57462 19.5233L2.02779 25.0477C1.95474 25.3086 2.02809 25.5886 2.21968 25.7802C2.41127 25.9718 2.69131 26.0452 2.95223 25.9721L8.47647 24.4254C9.07632 24.2575 9.62281 23.9379 10.0633 23.4974L24.8497 8.71037C26.3852 7.17482 26.3852 4.68527 24.8497 3.14974ZM20.3496 4.2104C21.2993 3.2606 22.8392 3.26059 23.789 4.21039C24.7387 5.16014 24.7387 6.69997 23.789 7.64973L22.2498 9.18905L18.8104 5.74965L20.3496 4.2104ZM17.7497 6.81034L21.1891 10.2497L9.00259 22.4367C8.74429 22.6951 8.42382 22.8825 8.07205 22.981L3.83174 24.1682L5.01906 19.9277C5.11754 19.576 5.30493 19.2556 5.56318 18.9974L17.7497 6.81034Z" fill="#212121"/>
</svg>

<svg viewBox="0 0 28 28" fill="none" xmlns="http://www.w3.org/2000/svg" height="1em" width="1em">
  <path d="M24.85 3.15a3.932 3.932 0 0 0-5.561 0L4.502 17.937c-.44.44-.76.986-.927 1.586l-1.547 5.525a.75.75 0 0 0 .924.924l5.524-1.547a3.626 3.626 0 0 0 1.587-.928L24.85 8.71a3.932 3.932 0 0 0 0-5.56Zm-4.5 1.06a2.432 2.432 0 1 1 3.439 3.44l-1.54 1.539-3.439-3.44 1.54-1.539Zm-2.6 2.6 3.44 3.44L9.002 22.437a2.126 2.126 0 0 1-.93.544l-4.241 1.187 1.187-4.24a2.13 2.13 0 0 1 .544-.93L17.75 6.81Z" fill="#212121"/>
</svg>
